docs/img/footer/Telegram_Color-1.svg

<svg width="40" height="40" viewBox="0 0 40 40" fill="none" xmlns="http://www.w3.org/2000/svg">
<g id="Telegram">
<path id="Oval" fill-rule="evenodd" clip-rule="evenodd" d="M20 40C31.0457 40 40 31.0457 40 20C40 8.95431 31.0457 0 20 0C8.95431 0 0 8.95431 0 20C0 31.0457 8.95431 40 20 40Z" fill="url(#paint0_linear)"/>
<path id="Shape" fill-rule="evenodd" clip-rule="evenodd" d="M16.333 29.1668C15.6851 29.1668 15.7952 28.9222 15.5717 28.3052L13.6664 22.0345L28.333 13.3335" fill="#C8DAEA"/>
<path id="Shape_2" fill-rule="evenodd" clip-rule="evenodd" d="M16.3334 29.1667C16.8334 29.1667 17.0544 28.938 17.3334 28.6667L20.0001 26.0737L16.6738 24.0679" fill="#A9C9DD"/>
<path id="Shape_3" fill-rule="evenodd" clip-rule="evenodd" d="M16.6731 24.0681L24.7331 30.0229C25.6528 30.5304 26.3167 30.2676 26.5458 29.169L29.8266 13.7085C30.1625 12.3618 29.3132 11.751 28.4334 12.1505L9.16837 19.579C7.85335 20.1064 7.86102 20.8401 8.92867 21.167L13.8725 22.71L25.318 15.4892C25.8583 15.1615 26.3542 15.3377 25.9472 15.6989" fill="url(#paint1_linear)"/>
</g>
<defs>
<linearGradient id="paint0_linear" x1="15.002" y1="1.668" x2="5.002" y2="25" gradientUnits="userSpaceOnUse">
<stop stop-color="#37AEE2"/>
<stop offset="1" stop-color="#1E96C8"/>
</linearGradient>
<linearGradient id="paint1_linear" x1="17.4961" y1="21.2283" x2="19.6331" y2="28.1407" gradientUnits="userSpaceOnUse">
<stop stop-color="#EFF7FC"/>
<stop offset="1" stop-color="white"/>
</linearGradient>
</defs>
</svg>

<svg width="40" height="40" fill="none" xmlns="http://www.w3.org/2000/svg"><g fill-rule="evenodd" clip-rule="evenodd"><path d="M20 40c11.046 0 20-8.954 20-20S31.046 0 20 0 0 8.954 0 20s8.954 20 20 20z" fill="url(#paint0_linear)"/><path d="M16.333 29.167c-.648 0-.538-.245-.761-.862l-1.906-6.27 14.667-8.701" fill="#C8DAEA"/><path d="M16.333 29.167c.5 0 .721-.229 1-.5L20 26.074l-3.326-2.006" fill="#A9C9DD"/><path d="M16.673 24.068l8.06 5.955c.92.507 1.584.245 1.813-.854l3.28-15.46c.337-1.347-.513-1.958-1.393-1.559L9.168 19.58c-1.315.527-1.307 1.261-.24 1.588l4.944 1.543 11.446-7.22c.54-.329 1.036-.152.63.209" fill="url(#paint1_linear)"/></g><defs><linearGradient id="paint0_linear" x1="15.002" y1="1.668" x2="5.002" y2="25" gradientUnits="userSpaceOnUse"><stop stop-color="#37AEE2"/><stop offset="1" stop-color="#1E96C8"/></linearGradient><linearGradient id="paint1_linear" x1="17.496" y1="21.228" x2="19.633" y2="28.141" gradientUnits="userSpaceOnUse"><stop stop-color="#EFF7FC"/><stop offset="1" stop-color="#fff"/></linearGradient></defs></svg>
